X: 1
T: The Flax In Bloom
R: reel
M: 4/4
L: 1/8
K: Dmaj
D2 (3FED FAAf|(3gfe (3fed edBd|(3ABA FA dfaf|gafd edBd|
D2 (3FED FAAf|(3gfe (3fed edBd|ABAF ABde|faeg fd d2||
(3fgf df (3efe ce|dcdB AGFG|DFAd FAdf|(3gfe (3fed edBd|
(3fgf df (3efe ce|dcdB AGFG|DFAc defg|afeg fd d2||


Tune 748	Setting 13843

